images/UK_traffic_sign_521.svg

<svg xmlns="http://www.w3.org/2000/svg" width="681" height="602.12" fill-rule="evenodd"><path d="m46.019 601.088-38.971-67.5L301.529 23.532h77.942l294.481 510.056-38.971 67.5" fill="#e31017"/><circle cx="340.5" cy="46.032" r="45" fill="#e31017"/><circle cx="634.981" cy="556.088" r="45" fill="#e31017"/><circle cx="46.019" cy="556.088" r="45" fill="#e31017"/><path d="M72 541.088 340.5 76.032 609 541.088" fill="#fff"/><path d="M281.833 471.088V292.755L248.5 326.088v-50l50-50 50 50v50l-33.333-33.333v178.333M403.833 276.088v178.333L370.5 421.088v50l50 50 50-50v-50l-33.333 33.333V276.088"/></svg>

<?xml version="1.0"?>
<svg xmlns="http://www.w3.org/2000/svg" width="681" height="602.12" fill-rule="evenodd">
<path d="M46.019,601.088 7.048,533.588 301.529,23.532 379.471,23.532 673.952,533.588 634.981,601.088" fill="#e31017" stroke="none"/>
<circle cx="340.5" cy="46.032" r="45" fill="#e31017" stroke="none"/>
<circle cx="634.981" cy="556.088" r="45" fill="#e31017" stroke="none"/>
<circle cx="46.019" cy="556.088" r="45" fill="#e31017" stroke="none"/>
<path d="M72,541.088 340.5,76.032 609,541.088" fill="#fff" stroke="none"/>
<path d="M281.833,471.088 281.833,292.755 248.5,326.088 248.5,276.088 298.5,226.088 348.5,276.088 348.5,326.088 315.167,292.755 315.167,471.088" fill="#000" stroke="none"/>
<path d="M403.833,276.088 403.833,454.421 370.5,421.088 370.5,471.088 420.5,521.088 470.5,471.088 470.5,421.088 437.167,454.421 437.167,276.088" fill="#000" stroke="none"/>
</svg>
